!!!OTL: NOCHMALS LASS NATUR DICH GRUESSEN
!!!ARE: Europa, Mitteleuropa, Deutschland
!!!SCT: F0699
!!!YEM: Copyright 1995, estate of Helmut Schaffrath.
**kern
*ICvox
*Ivox
*M4/4
*k[b-e-]
*B-:
{4dd
4cc
=1
4.ee-
8dd
4ff
4ee-
=2
4gg
4ff}
{4ee-
4dd
=3
4cc
4cc
4.ee-
8dd
=4
2dd}
{4dd
4een
=5
4dd
4cc#
4.cc
8cc
=6
4dd
4cc}
{4ff
4b-
=7
4ff
4a
4.cc
8b-
=8
2a}
{4cc
4dd
=9
4.ee-
8ee-
4.ff
8ee-
=10
4ee-
4dd}
{4dd
4ee-
=11
4.ff
8b-
4gg
4ff
=12
2ee-}
{4ee-
4dd-
=13
4cc
4cc
4.ee-
8dd-
=14
4dd-
4cc}
{4cc
4cc
=15
4cc
4dd
4ee-
4cc
=16
2ff}
{4ee-
4dd
=17
4gg
4cc
4.ff
8a
=18
2b-}
==
!!!AGN: Geselligkeits -, Jahreszeiten - Lied, Herbst
!!!ONB: ESAC (Essen Associative Code) Database: FINK
!!!AMT: simple quadruple
!!!AIN: vox
!!!EED: Helmut Schaffrath
!!!EEV: 1.0
*-
